svg/xwiki.svg

<?xml version="1.0" encoding="UTF-8"?>
<!-- Uploaded to: SVG Repo, www.svgrepo.com, Generator: SVG Repo Mixer Tools -->
<svg width="800px" height="800px" viewBox="0 0 256 256" version="1.1" xmlns="http://www.w3.org/2000/svg" xmlns:xlink="http://www.w3.org/1999/xlink" preserveAspectRatio="xMidYMid">
    <g>
        <path d="M127.612057,0 C132.386238,0 136.277498,3.78023284 136.455905,8.51076571 L136.462296,8.85023887 L136.462296,48.5180986 C136.462296,53.4059505 132.499909,57.3683374 127.612057,57.3683374 C122.837876,57.3683374 118.946616,53.5881046 118.768209,48.8575717 L118.761818,48.5180986 L118.761818,8.85023887 C118.761818,3.96238691 122.724205,0 127.612057,0 Z" fill="#70B700">
</path>
        <path d="M247.143461,117.992232 C252.031313,117.992232 255.9937,121.954619 255.9937,126.842471 C255.9937,131.598219 252.242602,135.477851 247.537686,135.684087 L247.143461,135.69271 L207.475602,135.69271 C202.58775,135.69271 198.625363,131.730323 198.625363,126.842471 C198.625363,122.086723 202.376461,118.207091 207.081377,118.000855 L207.475602,117.992232 L247.143461,117.992232 Z" fill="#FF7700">
</path>
        <path d="M136.462296,246.373875 C136.462296,251.261727 132.499909,255.224114 127.612057,255.224114 C122.856309,255.224114 118.976677,251.473016 118.770441,246.7681 L118.761818,246.373875 L118.761818,206.706016 C118.761818,201.818164 122.724205,197.855777 127.612057,197.855777 C132.367805,197.855777 136.247437,201.606875 136.453673,206.311791 L136.462296,206.706016 L136.462296,246.373875 Z" fill="#FF0000">
</path>
        <path d="M8.85023887,135.69271 C3.96238691,135.69271 0,131.730323 0,126.842471 C0,122.086723 3.7510982,118.207091 8.45601455,118.000855 L8.85023887,117.992232 L48.5180986,117.992232 C53.4059505,117.992232 57.3683374,121.954619 57.3683374,126.842471 C57.3683374,131.598219 53.6172392,135.477851 48.9123229,135.684087 L48.5180986,135.69271 L8.85023887,135.69271 Z" fill="#0087CB">
</path>
        <path d="M224.318605,17.1016778 C230.599132,22.5981878 231.337339,32.0717143 226.063652,38.4686096 L225.764482,38.8207826 L148.057213,127.612239 L225.764482,216.403332 C231.362779,222.800165 230.715438,232.524139 224.318605,238.122436 C218.038078,243.618946 208.550296,243.094867 202.908908,237.019773 L202.5995,236.676559 L127.603213,150.983239 L52.6076342,236.676559 C47.0093369,243.073392 37.2853624,243.720734 30.8885293,238.122436 C24.6080023,232.625926 23.8697954,223.1524 29.1434817,216.755505 L29.4426523,216.403332 L107.149213,127.612239 L29.4426523,38.8207826 C23.844355,32.4239495 24.4916962,22.6999751 30.8885293,17.1016778 C37.1690564,11.6051677 46.6568377,12.1292467 52.2982257,18.2043416 L52.6076342,18.5475548 L127.603213,104.240239 L202.5995,18.5475548 C208.197797,12.1507217 217.921772,11.5033805 224.318605,17.1016778 Z" fill="#505052">
</path>
    </g>
</svg>

<svg xmlns="http://www.w3.org/2000/svg" width="800" height="800" preserveAspectRatio="xMidYMid" viewBox="0 0 256 256"><path fill="#70B700" d="M127.612 0a8.85 8.85 0 0 1 8.844 8.51l.006.34v39.668a8.85 8.85 0 0 1-17.694.34l-.006-.34V8.85a8.85 8.85 0 0 1 8.85-8.85"/><path fill="#F70" d="M247.143 117.992a8.85 8.85 0 0 1 .395 17.692l-.395.009h-39.667A8.85 8.85 0 0 1 207.08 118l.395-.009z"/><path fill="red" d="M136.462 246.374a8.85 8.85 0 0 1-17.692.394l-.008-.394v-39.668a8.85 8.85 0 0 1 17.692-.394l.008.394z"/><path fill="#0087CB" d="M8.85 135.693A8.85 8.85 0 0 1 8.456 118l.394-.009h39.668a8.85 8.85 0 0 1 .394 17.692l-.394.009z"/><path fill="#505052" d="M224.319 17.102c6.28 5.496 7.018 14.97 1.745 21.367l-.3.352-77.707 88.791 77.707 88.791c5.599 6.397 4.951 16.121-1.445 21.72-6.28 5.496-15.769 4.972-21.41-1.103l-.31-.343-74.996-85.694-74.995 85.694c-5.599 6.396-15.323 7.044-21.72 1.445-6.28-5.496-7.018-14.97-1.745-21.366l.3-.353 77.706-88.79L29.443 38.82c-5.599-6.397-4.951-16.121 1.446-21.72 6.28-5.496 15.768-4.972 21.41 1.103l.309.344 74.995 85.692L202.6 18.548c5.598-6.397 15.322-7.045 21.719-1.446"/></svg>
